!!!!SEGMENT: pl-sa--l-1636--085_anonim--toccata.krn
!!!cenid: 17xx:792
!!!COM: Anonim
!!!COM-rismid: pe30004985
!!!CDT:
!!!CNT:
!!!OTL: Toccata
!!!PDT:
!!!AGN: Secular;Toccata
!!!SMS-siglum: PL-SA
!!!SMS-shelfmark: L 1636
!!!SMS-shelfwork: 085 W
!!!SMS-variant:
!!!SMS-altvar:
!!!NIFC-rismid: 1001077033
!!!URL-scan: http://repozytorium.nifc.pl/skany/pl-sa-nut--l1636
!!!ONB-nifc: 30v-31v, skan 0034-0035
!!!key:
**kern	**kern
*part2	*part1
*staff2	*staff1
*Iempty	*Iempty
*I"[Keyboard]	*I"[Keyboard]
*I'keyb	*I'keyb
*clefF4	*clefG2
*k[b-]	*k[b-]
*F:	*F:
*M2/2	*M2/2
*met(c|)	*met(c|)
=1	=1
*2\right	*2\right
*	*^
!LO:TX:i:a:t=Tocata	!	!
2F 2C 2AA 2FF/	8f/L	4reyy
.	8g/J	.
.	8a/L	8f\L
.	8b-/J	8g\J
8FF\L	2cc/	2a\
8GG\	.	.
8AA\	.	.
8BB-\J	.	.
=2	=2	=2
*^	*	*
2G 2E/	2C\	8c/L	4rAyy
.	.	8d/	.
.	.	8e/	8c\L
.	.	8f/J	8d\J
*v	*v	*	*
!!LO:LB:g=original
!LO:TX:a:t=P:problem=w tym miejscu łamanie systemu	!	!
!LO:TX:a:t=P:problem=nuty nieczytelne - defekt źródła	!	!
!	!	!LO:N:vis=2.
8	2g/	2e\
8	.	.
8	.	.
8	.	.
!!LO:LB:g=original
=3	=3	=3
2G 2GG/	8g/L	4reyy
.	8a/	.
.	8b-/	8g\L
.	8cc/J	8a\J
8GG/L	2dd/	2b-\
8AA/	.	.
8BB-/	.	.
8C/J	.	.
=4	=4	=4
*^	*	*
2F/	2D\	8dd/L	4ryy
.	.	8ee/	.
.	.	8ff/	8dd\L
.	.	8gg/J	8ee\J
8D\L	2rGGyy	2aa/	2ff\
8E\	.	.	.
8F\	.	.	.
8G\J	.	.	.
*	*	*v	*v
=5	=5	=5
4c#X/	1A	8r
.	.	8aa\L
2d/	.	8gg\
.	.	8ff\J
.	.	4.ee\
4c#X/	.	.
.	.	16dd\LL
.	.	16ee\JJ
=6	=6	=6
4d/	4D\	8dd\L
.	.	8ff\
2B-/	4E-X\	8ee-X\
.	.	8dd\J
.	2F\	4.cc\
4A/	.	.
.	.	16b-\LL
.	.	16cc\JJ
=7	=7	=7
4B-/	4BB-\	8b-\L
.	.	8dd\
2G/	4C\	8cc\
.	.	8b-\J
.	2D\	4.a/
4F#X/	.	.
.	.	16g/LL
.	.	16a/JJ
*v	*v	*
=8	=8
*	*^
4G\	8g/L	8reyy
.	8b-/	8g\L
4A\	8a/	8f\
.	8g/J	8e\J
4B-\	8f/L	8d\L
.	8e/	8c\
8A\L	8f/	8d\
8G\J	8g/J	8e\J
!!LO:LB:g=original
=9	=9	=9
4F\	8a/L	8f\L
.	8g/	8e\
4FF/	8a/	8f\
.	8b-/J	8g\J
8FF/L	2cc/	2a\
8GG/	.	.
8AA/	.	.
8BB-/J	.	.
=10	=10	=10
8C\L	2cc 2g/	2e\
8D\	.	.
8E\	.	.
8C\J	.	.
!LO:TX:a:t=P:problem=mixed beam	!	!
8F\L	2cc 2a/	2f\
8FF/	.	.
8AA/	.	.
8BB-/J	.	.
*	*v	*v
=11	=11
*^	*
4E/	1C	8r
.	.	8cc\L
4.F/	.	8b-\
.	.	8a\J
!	!	!LO:N:vis=2
.	.	4.g/
16E/LL	.	.
16D/JJ	.	.
4E/	.	.
.	.	8b-/
*v	*v	*
=12	=12
!LO:N:vis=1	!LO:N:vis=1
2F 2C 2FF	2a 2f 2c
!LO:N:vis=1	!LO:N:vis=1
2FF	2d
!LO:TX:a:t=P:||:problem=w źródle końcowa kreska taktowa 	!LO:TX:a:t=P:||:problem=w źródle końcowa kreska taktowa 
=13||	=13||
*M3/2	*M3/2
*^	*^
1.F	2FF\	1a 1f	1rgyy
.	2GG\	.	.
.	2AA\	2g/	2e\
=14	=14	=14	=14
!LO:N:vis=1	!	!	!
1.F	1BB-	2f/	1.d
.	.	2g/	.
.	2AA\	2a/	.
=15	=15	=15	=15
1.G	1.GG	1.b-	2d\
.	.	.	2e\
.	.	.	2f\
!!LO:LB:g=original
=16	=16	=16	=16
1.G	2GG\	1b- 1g	1rgyy
.	2AA\	.	.
.	2BB-\	2a/	2f\
*	*	*v	*v
=17	=17	=17
!	!	!LO:TX:a:t=P:problem=w źródle 1.e bez kropki
2G/	1.C	1.g 1.e
2A/	.	.
2B-/	.	.
=18	=18	=18
*	*	*^
1.c	1.C	2g/	1.e
.	.	2a/	.
.	.	2b-/	.
=19	=19	=19	=19
1.c	2C\	1.cc	2e\
.	2D\	.	2f\
.	2E\	.	2g\
=20	=20	=20	=20
1.c	1.F	2cc/	1.a
.	.	2dd/	.
.	.	2ee/	.
=21	=21	=21	=21
1.c	2F\	1ff	2a\
.	2G\	.	2b-\
.	2A\	2ee/	2cc\
=22	=22	=22	=22
1.B-	2BB-\	1dd	1b-
.	2C\	.	.
.	2D\	2cc/	2a\
=23	=23	=23	=23
1B-	1E-X	2b-/	2g\
.	.	2cc/	2a\
2F/	2D\	2dd/	2b-\
!!LO:PB:g=original
=24	=24	=24	=24
1.G	2C\	1ee-X 1cc	1r
.	2D\	.	.
.	2E-X\	2dd/	2b-\
=25	=25	=25	=25
1.c	2F\	2cc/	2a\
.	2G\	2b-/	2g\
.	2A\	2a/	2f\
*v	*v	*	*
=26	=26	=26
2B-\	1.g	1f
2G\	.	.
2c\	.	2e\
*clefC3	*	*
*	*v	*v
=27	=27
*k[b-]	*k[b-]
*	*^
!	!LO:N:vis=2	!
!	!	!LO:N:vis=1
1.f 1.F	1cc	1.a
.	[>2dd/	.
*	*v	*v
=28	=28
*clefC1	*
*^	*
1g	1.e	2dd/]
.	.	2cc/
2cc/	.	2ff/
=29	=29	=29
1cc	1.d	1.ff
2b-/	.	.
=30	=30	=30
1b-	1.c	1.ee-X
2a/	.	.
=31	=31	=31
1a	1.B-	1.dd
2g/	.	.
=32	=32	=32
1g	1.A	1.cc
2f/	.	.
=33	=33	=33
*clefC3	*	*
1f	1.G	1.b-
2e/	.	.
*v	*v	*
=34	=34
!LO:TX:a:t=P:problem=nieczytelna reszta taktu - defekt źródła	!
1e	1.a
2ryy	.
!!LO:LB:g=original
=35	=35
*^	*
1d	1.E	1g
2c/	.	2gg\
=36	=36	=36
1c	1.D	1.ff
2B-/	.	.
=37	=37	=37
*clefC4	*	*
1B-	1.C	1.ee-X
2A/	.	.
=38	=38	=38
*clefF4	*	*
1A	1.BB-	1.dd
2G/	.	.
=39	=39	=39
1G	1.AA	1.cc
2F/	.	.
=40	=40	=40
1F	1.GG	1.b-
2E/	.	.
=41	=41	=41
*	*	*^
1.F	1.FF	1.a	1f
.	.	.	2f\
=42	=42	=42	=42
!LO:N:vis=2	!	!	!
1G	1.C	1g	1.e
2A/	.	2cc/	.
=43	=43	=43	=43
1E	1.C	2cc/	1.c
.	.	2b-/	.
2F/	.	2a/	.
=44	=44	=44	=44
!	!	!	!LO:N:vis=1
2E/	1.C	1g	1.c
1A	.	.	.
.	.	2f/	.
*v	*v	*	*
=45	=45	=45
!LO:TX:a:t=P:problem=dolny głos nieczytelny - defekt źródła	!	!
1G	2e/	1.c
.	1a	.
2F/	.	.
!!LO:LB:g=original
=46	=46	=46
*^	*	*
2F/	1.C	1g	1.c
2E/	.	.	.
2A/	.	2f/	.
=47	=47	=47	=47
2G/	1.C	2e/	1.c
2F/	.	2d/	.
2G/	.	2e/	.
*v	*v	*	*
*	*v	*v
=48||	=48||
*clefC4	*
*M4/4	*M4/4
*met(c)	*met(c)
*^	*^
8A/L	4F\	16r	4f\
.	.	16cc/LL	.
[>8f/J	.	16b-/	.
.	.	16a/JJ	.
8f/L]	4G\	16b-/LL	4rgyy
.	.	16g/	.
8e/J	.	16cc/	.
.	.	16b-/JJ	.
!LO:TX:a:t=P:problem=mixed beam	!	!	!
16F/LL	2rDyy	8cc/L	8a\L
16f\	.	.	.
16e-X\	.	8dd/J	[<8b-\
16d\JJ	.	.	.
16e-X\LL	.	4cc/	8b-\]
16c\	.	.	.
16f\	.	.	8a\J
16e-X\JJ	.	.	.
=49	=49	=49	=49
*clefC3	*	*	*
8f/L	4d\	16r	4ryy
.	.	16ff\LL	.
8b-/J	.	16ee-X\	.
.	.	16dd\JJ	.
8b-/L	4c\	16ee-\LL	4ryy
.	.	16cc\	.
8a/J	.	16ff\	.
.	.	16ee-X\JJ	.
*clefC4	*	*	*
16r	2rDyy	4dd/	4b-\
16B-\LL	.	.	.
16d\	.	.	.
16e\JJ	.	.	.
!LO:TX:a:t=P:problem=mixed beam	!	!	!
16f\LL	.	4cc/	4a\
16F/	.	.	.
16A/	.	.	.
16B-/JJ	.	.	.
=50	=50	=50	=50
16r	4ryy	8g/L	8e\L
16c\LL	.	.	.
16B-\	.	8a/J	8f\J
16A\JJ	.	.	.
16B-\LL	4ryy	4g/	8f\L
16G\	.	.	.
16c\	.	.	8e\J
16B-\JJ	.	.	.
!!LO:LB:g=original
!LO:TX:a:t=P:problem=w tym miejscu łamanie systemu	!	!	!
8e/L	4A\	16r	2reyy
.	.	16cc\LL	.
[<8f/J	.	16b-\	.
.	.	16a\JJ	.
8f/L]	4G\	16b-\LL	.
.	.	16g\	.
8e/J	.	16cc\	.
.	.	16b-\JJ	.
!!LO:LB:g=original
=51	=51	=51	=51
!LO:N:vis=8	!	!	!
16r	2rDyy	8cc/L	8a\L
16F/LL	.	.	.
16E-X/	.	8dd/J	8b-\J
16D/JJ	.	.	.
16E-/LL	.	4cc/	8b-\L
16C/	.	.	.
16F/	.	.	8a\J
16E-X/JJ	.	.	.
*clefF4	*	*	*
8A/L	4D\	16r	2reyy
.	.	16f/LL	.
[>8B-/J	.	16e-X/	.
.	.	16d/JJ	.
8B-/L]	4C\	16e-X/LL	.
.	.	16c/	.
8A/J	.	16f/	.
.	.	16e-/JJ	.
=52	=52	=52	=52
!	!	!LO:TX:a:t=P:problem=mixed beam	!
8A/L	4BB-\	16d/LL	2r
.	.	16dd\	.
8G/J	.	16cc\	.
.	.	16b-\JJ	.
8G/L	4AA\	16cc\LL	.
.	.	16a\	.
8F#X/J	.	16dd\	.
.	.	16cc\JJ	.
!LO:TX:a:t=P:problem=mixed beam	!	!	!
16GG/LL	2rAAAyy	8dd/L	8bn\L
16G\	.	.	.
16F#\	.	8ee/J	8cc\J
16E\JJ	.	.	.
16F#/LL	.	4dd/	8cc\L
16D/	.	.	.
16G/	.	.	8b#\J
16F#/JJ	.	.	.
*clefC4	*	*	*
=53	=53	=53	=53
8G/L	4E\	4cc/	16r
.	.	.	16g\LL
8c/J	.	.	16f\
.	.	.	16e\JJ
8c/L	4D\	16f/LL	4rcyy
.	.	16d/	.
8Bn/J	.	16g/	.
.	.	16f/JJ	.
!LO:TX:a:t=P:problem=mixed beam	!	!	!
16C/LL	2rBByy	8g/L	8e\L
16c\	.	.	.
16B\	.	8a/J	8f\J
16A\JJ	.	.	.
16B\LL	.	4g/	8f\L
16G\	.	.	.
16c\	.	.	8e\J
16B\JJ	.	.	.
*	*	*v	*v
!!LO:PB:g=original
=54	=54	=54
8c/L	4A\	16r
.	.	16cc\LL
[>8f/J	.	16b-\
.	.	16a\JJ
8f/L]	4G\	16b-\LL
.	.	16g\
[>8e/J	.	16cc\
.	.	16b-\JJ
!	!	!LO:TX:a:t=P:problem=mixed beam
8e/L]	8F\L	16a/LL
.	.	16ff\
8d/J	8B-\J	16ee-X\
.	.	16dd\JJ
4c/	8B-\L	16ee-X\LL
.	.	16cc\
.	8A\J	16ff\
.	.	16ee-X\JJ
=55	=55	=55
*clefC3	*	*
*	*	*^
16r	4B-\	4dd/	8r
16f/LL	.	.	.
16e/	.	.	8b-\
16d/JJ	.	.	.
16e/LL	4c\	4cc/	8b-\L
16c/	.	.	.
16f/	.	.	[>8a\J
16e/JJ	.	.	.
16d\LL	2rFyy	4b-/	8a\L]
16B-\	.	.	.
16e-X\	.	.	[<8g\J
16d\JJ	.	.	.
16c/LL	.	4a/	8g\L]
16A/	.	.	.
16d/	.	.	[8f\J
16c/JJ	.	.	.
*v	*v	*	*
=56	=56	=56
16B-/LL	4g/	8f\L]
16G/	.	.
16c/	.	[<8e\J
16B-/JJ	.	.
16A/LL	4f/	8e\L]
16F/	.	.
16B-/	.	[<8d\J
16A/JJ	.	.
*clefF4	*clefC1	*
!LO:TX:a:t=P:problem=mixed beam	!	!
16G\LL	4e/	8d\L]
16GG/	.	.
16AA/	.	[<8c\J
16A\JJ	.	.
!LO:TX:a:t=P:problem=mixed beam	!	!
16F\LL	4d/	8c\L]
16D\	.	.
16G\	.	8B#\J
16GG/JJ	.	.
!!LO:PB:g=original
=57	=57	=57
*^	*	*
!LO:TX:a:t=P:problem=nieczytelny dźwięk - defekt źródła	!	!LO:TX:a:t=P:problem=mixed beam	!
4ryy	8ryyL	16c/LL	2rAyy
.	.	16a\	.
.	8F\J	16g\	.
.	.	16f\JJ	.
4G	8F\L	16g\LL	.
.	.	16e\	.
.	8E\J	16a\	.
.	.	16g\JJ	.
*clefC4	*	*	*
!LO:TX:a:t=P:problem=mixed beam	!	!	!
16F/LL	2rGGyy	8a/L	8f\L
16f\	.	.	.
16e-X\	.	8b-/J	8g\J
16d\JJ	.	.	.
!	!	!	!LO:N:vis=4
16e-X\LL	.	4a/	8g\
16c\	.	.	.
!	!	!	!LO:N:vis=4
16f\	.	.	8f\
16e-\JJ	.	.	.
*v	*v	*	*
*	*v	*v
!LO:TX:a:t=P:problem=w źródle brak zakończenia	!
=|	=|
*-	*-
!!!system-decoration: s1,s2
!!!RDF**kern: > = above
!!!RDF**kern: < = below
!!!EED: Antoni Szymański
!!!EST: 2020-12-08
!!!AIN: 2 empty
!!!ENC: Andrzej Kubiczek
!!!END: 2020-06-12
